build/assets/images/proyectos/logos/fichas/logo-canal-march.svg

<svg width="160" height="23" viewBox="0 0 160 23" fill="none" xmlns="http://www.w3.org/2000/svg">
<g clip-path="url(#clip0)">
<path fill-rule="evenodd" clip-rule="evenodd" d="M149.443 12.185C149.986 11.4245 151.343 10.3609 153.003 10.3609C153.906 10.3609 154.691 10.6648 155.204 11.1813C155.747 11.729 156.078 12.489 156.078 13.95V21.7642H160V14.2537C160 11.7296 159.457 10.2394 158.492 9.08382C157.285 7.62403 155.446 6.71162 153.425 6.71162C151.983 6.70842 150.583 7.18998 149.443 8.08007V0.17334H145.522V21.7642H149.443V12.185ZM140.697 16.473C140.064 17.4456 138.797 18.4188 137.198 18.4188C134.816 18.4188 133.156 16.7162 133.156 14.4051C133.156 12.1548 134.845 10.3609 137.108 10.3609C138.525 10.3609 139.702 11.0903 140.485 12.1242L143.261 9.66109C141.903 7.89708 139.641 6.71099 137.107 6.71099C132.644 6.71099 129.235 10.1162 129.235 14.4051C129.235 18.6619 132.553 22.0681 137.078 22.0681C139.822 22.0681 141.994 21.0644 143.713 18.7539L140.697 16.473ZM129.085 6.83319C128.663 6.7724 128.331 6.71099 127.759 6.71099C125.98 6.71099 124.382 7.41112 123.507 8.50555V7.01555H119.735V21.7642H123.656V12.489C124.139 11.6074 125.495 10.3609 127.215 10.3609C127.788 10.3609 128.361 10.4217 128.633 10.5127L129.085 6.83319ZM116.418 7.01555H112.647V8.20163C111.501 7.25868 110.024 6.71099 108.365 6.71099C104.384 6.71099 101.187 10.0564 101.187 14.4051C101.187 16.4122 101.911 18.2364 103.057 19.5744C104.354 21.0949 106.405 22.0681 108.577 22.0681C110.054 22.0681 111.442 21.6121 112.648 20.5781V21.7642H116.418L116.418 7.01555ZM112.498 16.5946C111.743 17.6894 110.445 18.4188 108.968 18.4188C106.766 18.4188 105.108 16.7162 105.108 14.4051C105.108 12.2764 106.586 10.3609 108.877 10.3609C110.303 10.3565 111.645 11.0332 112.498 12.185V16.5946ZM78.8681 21.7642V12.185C79.4107 11.4849 80.6171 10.3609 82.277 10.3609C83.0308 10.3609 83.8754 10.6041 84.4791 11.2727C84.9313 11.7898 85.2024 12.4587 85.2024 13.7967V21.7642H89.1233V13.9491C89.1233 13.3406 89.0635 12.7936 89.0028 12.3066C89.5157 11.5466 90.8428 10.3609 92.5313 10.3609C93.2858 10.3609 94.1304 10.6041 94.7334 11.2727C95.1864 11.7898 95.4567 12.4587 95.4567 13.7967V21.7642H99.3776V13.9491C99.3776 11.7596 98.8344 10.2387 97.8997 9.08315C96.7233 7.62339 94.7923 6.71099 92.7721 6.71099C90.6003 6.71099 88.7603 7.7755 87.5847 9.02235C86.4378 7.62211 84.6593 6.71099 82.6681 6.71099C81.2508 6.71099 79.8636 7.16766 78.7173 8.20163V7.01555H74.9473V21.7642H78.8681Z" fill="white"/>
<path fill-rule="evenodd" clip-rule="evenodd" d="M71.5789 0.17334H67.6024V21.7632H71.5789V0.17334ZM64.8495 7.01524H61.0259V8.20096C59.8636 7.25838 58.3647 6.71102 56.6821 6.71102C52.6444 6.71102 49.4018 10.0562 49.4018 14.4042C49.4018 16.4112 50.1362 18.2357 51.2985 19.5741C52.6136 21.0943 54.6942 22.0674 56.896 22.0674C58.3955 22.0674 59.8024 21.6108 61.0256 20.5769V21.7629H64.8493L64.8495 7.01524ZM60.8733 16.5939C60.1081 17.6886 58.7924 18.4186 57.2942 18.4186C55.061 18.4186 53.3781 16.7155 53.3781 14.4045C53.3781 12.2765 54.8776 10.3605 57.2024 10.3605C58.6475 10.3564 60.0092 11.033 60.8733 12.1845V16.5939ZM36.8601 21.7632V12.1845C37.4104 11.425 38.7876 10.3605 40.4696 10.3605C41.3877 10.3605 42.1826 10.6644 42.7028 11.1818C43.2531 11.7289 43.5901 12.4891 43.5901 13.9485V21.7632H47.5661V14.253C47.5661 11.7295 47.0152 10.2395 46.0369 9.08408C44.8134 7.62465 42.947 6.71198 40.8976 6.71198C39.2457 6.71198 37.8387 7.28956 36.7068 8.20192V7.01556H32.8835V21.7632H36.8601ZM30.7421 7.01556H26.9179V8.20128C25.7555 7.25869 24.2567 6.71134 22.5747 6.71134C18.537 6.71134 15.2951 10.0562 15.2951 14.4045C15.2951 16.4116 16.0288 18.236 17.1912 19.5744C18.5066 21.0946 20.5868 22.0677 22.7892 22.0677C24.2881 22.0677 25.6951 21.6111 26.9189 20.5772V21.7632H30.7425L30.7421 7.01556ZM26.7659 16.5942C26.0014 17.689 24.6851 18.419 23.1869 18.419C20.9536 18.419 19.2713 16.7158 19.2713 14.4048C19.2713 12.2768 20.7702 10.3608 23.095 10.3608C24.5401 10.3568 25.9018 11.0334 26.7659 12.1849V16.5942ZM11.6238 16.4727C10.9813 17.4458 9.69634 18.419 8.07554 18.419C5.6589 18.419 3.9779 16.7158 3.9779 14.4048C3.9779 12.1546 5.69059 10.3608 7.98494 10.3608C9.42265 10.3608 10.6154 11.0908 11.4103 12.1241L14.2243 9.661C12.8477 7.89769 10.5533 6.71166 7.98398 6.71166C3.45674 6.71166 0 10.1167 0 14.4048C0 18.6624 3.36486 22.0681 7.95357 22.0681C10.7371 22.0681 12.9395 21.0644 14.6833 18.7534L11.6238 16.4727Z" fill="white"/>
</g>
<defs>
<clipPath id="clip0">
<rect width="160" height="21.8947" fill="white" transform="translate(0 0.17334)"/>
</clipPath>
</defs>
</svg>

<svg width="160" height="23" fill="none" xmlns="http://www.w3.org/2000/svg"><g clip-path="url(#clip0)" fill-rule="evenodd" clip-rule="evenodd" fill="#fff"><path d="M149.443 12.185c.543-.76 1.9-1.824 3.56-1.824.903 0 1.688.304 2.201.82.543.548.874 1.308.874 2.769v7.814H160v-7.51c0-2.524-.543-4.015-1.508-5.17a6.57 6.57 0 00-5.067-2.372 6.444 6.444 0 00-3.982 1.368V.173h-3.921v21.591h3.921v-9.579zm-8.746 4.288c-.633.973-1.9 1.946-3.499 1.946-2.382 0-4.042-1.703-4.042-4.014 0-2.25 1.689-4.044 3.952-4.044 1.417 0 2.594.73 3.377 1.763l2.776-2.463c-1.358-1.764-3.62-2.95-6.154-2.95-4.463 0-7.872 3.405-7.872 7.694 0 4.257 3.318 7.663 7.843 7.663 2.744 0 4.916-1.004 6.635-3.314l-3.016-2.281zm-11.612-9.64c-.422-.06-.754-.122-1.326-.122-1.779 0-3.377.7-4.252 1.795v-1.49h-3.772v14.748h3.921V12.49c.483-.882 1.839-2.128 3.559-2.128.573 0 1.146.06 1.418.152l.452-3.68zm-12.667.183h-3.771v1.186c-1.146-.943-2.623-1.491-4.282-1.491-3.981 0-7.178 3.345-7.178 7.694 0 2.007.724 3.831 1.87 5.17 1.297 1.52 3.348 2.493 5.52 2.493 1.477 0 2.865-.456 4.071-1.49v1.186h3.77V7.016zm-3.92 9.579a4.278 4.278 0 01-3.53 1.824c-2.202 0-3.86-1.703-3.86-4.014 0-2.129 1.478-4.044 3.769-4.044a4.489 4.489 0 013.621 1.824v4.41zm-33.63 5.17v-9.58c.543-.7 1.75-1.824 3.409-1.824.754 0 1.598.243 2.202.912.452.517.723 1.186.723 2.524v7.967h3.921V13.95c0-.608-.06-1.155-.12-1.642.513-.76 1.84-1.946 3.528-1.946.755 0 1.6.243 2.202.912.453.517.724 1.186.724 2.524v7.967h3.92V13.95c0-2.19-.543-3.71-1.477-4.866-1.177-1.46-3.108-2.372-5.128-2.372-2.172 0-4.012 1.064-5.187 2.311a6.351 6.351 0 00-4.917-2.311c-1.417 0-2.804.457-3.95 1.49V7.017h-3.77v14.748h3.92zM71.579.173h-3.977v21.59h3.977V.173zm-6.73 6.842h-3.823v1.186c-1.162-.943-2.661-1.49-4.344-1.49-4.038 0-7.28 3.345-7.28 7.693 0 2.007.734 3.832 1.896 5.17 1.316 1.52 3.396 2.493 5.598 2.493 1.5 0 2.906-.456 4.13-1.49v1.186h3.823V7.015zm-3.976 9.579c-.765 1.095-2.08 1.825-3.579 1.825-2.233 0-3.916-1.704-3.916-4.014 0-2.128 1.5-4.044 3.824-4.044a4.573 4.573 0 013.671 1.823v4.41zm-24.013 5.17v-9.58c.55-.759 1.928-1.823 3.61-1.823.918 0 1.713.303 2.233.82.55.548.887 1.308.887 2.768v7.814h3.976v-7.51c0-2.524-.55-4.014-1.53-5.169a6.702 6.702 0 00-5.138-2.372c-1.652 0-3.06.578-4.191 1.49V7.016h-3.824v14.747h3.977zM30.742 7.015h-3.824V8.2c-1.162-.942-2.661-1.49-4.343-1.49-4.038 0-7.28 3.345-7.28 7.694 0 2.007.734 3.831 1.896 5.17 1.316 1.52 3.396 2.493 5.598 2.493 1.5 0 2.906-.457 4.13-1.49v1.185h3.823V7.016zm-3.976 9.578c-.765 1.095-2.08 1.825-3.58 1.825-2.232 0-3.915-1.703-3.915-4.014 0-2.128 1.5-4.044 3.824-4.044a4.573 4.573 0 013.67 1.824v4.41zm-15.142-.121c-.643.973-1.928 1.946-3.548 1.946-2.417 0-4.098-1.703-4.098-4.014 0-2.25 1.713-4.044 4.007-4.044 1.438 0 2.63.73 3.425 1.763l2.814-2.463c-1.376-1.763-3.67-2.95-6.24-2.95C3.457 6.712 0 10.118 0 14.406c0 4.257 3.365 7.663 7.954 7.663 2.783 0 4.986-1.004 6.73-3.315l-3.06-2.28z"/></g><defs><clipPath id="clip0"><path fill="#fff" transform="translate(0 .173)" d="M0 0h160v21.895H0z"/></clipPath></defs></svg>
